X:1535
T:Blackamoors Dance
M:2/4
L:1/8
K:G
B/2A/2|G2sG2s|ABcA|dedc|BcBA|G2sG2s|ABcA|d2dc|B2g:|!
g2|ga g2|fses d2|dc d2|cBG2|G2 AB|c2BA|G2GA|G2:|


